lib/svgs/intelligence.svg

<svg xmlns="http://www.w3.org/2000/svg" viewBox="0 0 20 20">
    <path fill="#000" fill-rule="evenodd" d="M9.809,2 C6.601,2 4,4.6 4,7.808 C4,9.15 4.456,10.386 5.221,11.37 C5.849,12.178 6.283,13.126 6.48,14.13 L6.521,14.336 C6.622,14.85 6.966,15.252 7.409,15.477 L7.409,16 C7.409,17.1 8.309,18 9.409,18 L10.209,18 C11.309,18 12.209,17.1 12.209,16 L12.209,15.476 C12.651,15.251 12.994,14.85 13.095,14.336 L13.135,14.132 C13.334,13.121 13.763,12.185 14.396,11.371 C15.161,10.387 15.617,9.151 15.617,7.808 C15.617,4.6 13.017,2 9.809,2 L9.809,2 L9.809,2 Z M13.449,10.634 C12.695,11.604 12.193,12.703 11.958,13.901 L11.918,14.105 C11.876,14.32 11.686,14.476 11.467,14.476 L8.149,14.476 C7.93,14.476 7.741,14.32 7.698,14.105 L7.658,13.899 C7.426,12.718 6.911,11.589 6.168,10.633 C5.535,9.819 5.2,8.842 5.2,7.808 C5.2,5.267 7.268,3.2 9.809,3.2 C12.35,3.2 14.417,5.267 14.417,7.808 C14.417,8.843 14.082,9.82 13.449,10.634 L13.449,10.634 L13.449,10.634 Z M11.7147,8.7483 C11.2807,9.3743 10.5677,9.7483 9.8077,9.7483 C9.0487,9.7483 8.3357,9.3743 7.9017,8.7483 C7.7117,8.4763 7.3377,8.4083 7.0667,8.5973 C6.7937,8.7863 6.7267,9.1603 6.9147,9.4323 C7.5737,10.3823 8.6547,10.9493 9.8077,10.9493 C10.9617,10.9493 12.0427,10.3813 12.7007,9.4323 C12.8897,9.1593 12.8217,8.7863 12.5497,8.5973 C12.2767,8.4073 11.9037,8.4753 11.7147,8.7483"/>
</svg>

<svg xmlns="http://www.w3.org/2000/svg" viewBox="0 0 20 20">
    <path fill="#000" fill-rule="evenodd" d="M9.809 2a5.808 5.808 0 0 0-4.588 9.37 6.568 6.568 0 0 1 1.259 2.76l.041.206c.101.514.445.916.888 1.141V16c0 1.1.9 2 2 2h.8c1.1 0 2-.9 2-2v-.524a1.64 1.64 0 0 0 .886-1.14l.04-.204a6.533 6.533 0 0 1 1.261-2.761A5.808 5.808 0 0 0 9.809 2m3.64 8.634a7.69 7.69 0 0 0-1.491 3.267l-.04.204a.46.46 0 0 1-.451.371H8.149a.461.461 0 0 1-.451-.371l-.04-.206a7.799 7.799 0 0 0-1.49-3.266A4.614 4.614 0 0 1 9.809 3.2a4.613 4.613 0 0 1 3.64 7.434m-1.734-1.886a2.322 2.322 0 0 1-3.813 0 .6.6 0 0 0-.987.684 3.523 3.523 0 0 0 5.786 0 .6.6 0 0 0-.986-.684"/>
</svg>
